X: 11757
T: Eleventh Of October
R: reel
M: 4/4
K: Amajor
|:EA cA dB cA|EA cA BB B2|cA ce fa gb|af ed cA A2:|
|:ag ae ag ae|fa ec dB B2|ag ae ag ae|fa ed cA A2|
ag ae ag ae|fa ec dB Bd|cA ce fa gb|af ed cA A2:|

